assets/icons/background.svg

<svg width="30" height="30" viewBox="0 0 30 30" fill="none" xmlns="http://www.w3.org/2000/svg">
<path fill-rule="evenodd" clip-rule="evenodd" d="M18.875 3C20.738 3 22.259 4.442 22.353 6.256L22.357 6.432V8.807C24.599 10.09 26.107 12.487 26.107 15.233C26.107 17.469 25.657 19.678 24.806 21.516C26.166 22.746 27 24.389 27 26.208C27 26.645 26.64 27 26.196 27H11.018C10.9132 27.0008 10.8093 26.9809 10.7122 26.9416C10.615 26.9022 10.5266 26.8441 10.452 26.7705C10.3773 26.697 10.3179 26.6094 10.277 26.5129C10.2362 26.4164 10.2148 26.3128 10.214 26.208C10.214 25.073 10.539 24.007 11.114 23.066H5.481C3.618 23.066 2.097 21.624 2.004 19.81L2 19.634V6.432C2 4.596 3.463 3.096 5.303 3.004L5.483 3H18.875ZM12.392 21.482C11.552 19.651 11.107 17.455 11.107 15.233C11.107 11.137 14.464 7.814 18.607 7.814C19.352 7.814 20.071 7.922 20.75 8.122V6.432C20.7467 5.96158 20.5652 5.5099 20.2421 5.16792C19.9191 4.82595 19.4785 4.61909 19.009 4.589L18.875 4.584H5.482C4.492 4.584 3.681 5.341 3.612 6.3L3.607 6.432V19.634C3.61034 20.1044 3.7918 20.5561 4.11485 20.8981C4.4379 21.2401 4.87853 21.4469 5.348 21.477L5.482 21.482H12.392ZM9.186 15.972C9.32339 16.1064 9.40662 16.2866 9.4199 16.4783C9.43317 16.67 9.37556 16.86 9.258 17.012L9.186 17.092L6.816 19.432C6.66413 19.5812 6.45983 19.665 6.24691 19.6654C6.03399 19.6658 5.82939 19.5827 5.677 19.434C5.5403 19.2991 5.45771 19.1189 5.44481 18.9273C5.43191 18.7357 5.48961 18.546 5.607 18.394L5.678 18.313L8.05 15.973C8.20175 15.8245 8.40565 15.7413 8.618 15.7413C8.83035 15.7413 9.03425 15.8245 9.186 15.973V15.972ZM13.396 7.662C13.5133 7.51003 13.5707 7.32032 13.5575 7.12882C13.5442 6.93732 13.4611 6.75734 13.324 6.623C13.1722 6.47446 12.9683 6.39128 12.756 6.39128C12.5436 6.39128 12.3398 6.47446 12.188 6.623L5.676 13.042L5.604 13.123C5.48672 13.275 5.42927 13.4647 5.44254 13.6562C5.45582 13.8477 5.53888 14.0277 5.676 14.162C5.99 14.472 6.499 14.472 6.812 14.162L13.324 7.744L13.396 7.663V7.662ZM7.966 6.623C8.10354 6.75726 8.18696 6.93737 8.20042 7.12911C8.21387 7.32084 8.15643 7.51084 8.039 7.663L7.967 7.743L6.812 8.881C6.66025 9.02954 6.45635 9.11272 6.244 9.11272C6.03165 9.11272 5.82775 9.02954 5.676 8.881C5.53888 8.74666 5.45582 8.56668 5.44254 8.37518C5.42927 8.18368 5.48672 7.99397 5.604 7.842L5.676 7.762L6.83 6.622C6.9818 6.47316 7.18591 6.38979 7.3985 6.38979C7.61109 6.38979 7.8152 6.47316 7.967 6.622L7.966 6.623ZM13.749 20.535C14.3349 20.1921 14.9575 19.916 15.605 19.712C14.445 18.675 13.785 17.026 13.785 15.22L13.793 15.116C13.8163 14.9331 13.9023 14.7639 14.0363 14.6372C14.1703 14.5105 14.344 14.4341 14.528 14.421L14.625 14.42L14.748 14.427L14.972 14.422C15.5735 14.3851 16.1567 14.2003 16.6696 13.8838C17.1825 13.5674 17.6092 13.1291 17.912 12.608C17.984 12.4881 18.0858 12.3889 18.2075 12.32C18.3292 12.2511 18.4666 12.2149 18.6065 12.2149C18.7464 12.2149 18.8838 12.2511 19.0055 12.32C19.1272 12.3889 19.229 12.4881 19.301 12.608C19.965 13.731 21.147 14.428 22.445 14.428L22.59 14.42C22.7951 14.41 22.9962 14.4793 23.1517 14.6136C23.3071 14.7478 23.405 14.9366 23.425 15.141L23.429 15.221C23.429 17.026 22.769 18.675 21.609 19.712C22.271 19.922 22.894 20.2 23.465 20.535C24.132 18.984 24.5 17.126 24.5 15.233C24.5 12.01 21.86 9.398 18.607 9.398C15.353 9.398 12.714 12.01 12.714 15.233C12.714 17.126 13.082 18.983 13.749 20.535ZM18.607 19.255L18.433 19.25C16.827 19.16 15.703 17.812 15.448 16.015L15.443 15.968L15.655 15.937C16.734 15.7501 17.7275 15.2301 18.496 14.45L18.607 14.334L18.717 14.45C19.5393 15.2848 20.6178 15.8197 21.78 15.969L21.768 16.063C21.501 17.876 20.305 19.255 18.607 19.255ZM11.917 25.311C12.457 22.799 15.222 20.839 18.607 20.839L18.842 20.843C22.119 20.931 24.77 22.857 25.298 25.311L25.318 25.416H11.897L11.917 25.311Z" fill="#485FC7"/>
</svg>

<svg width="30" height="30" fill="none" xmlns="http://www.w3.org/2000/svg"><path fill-rule="evenodd" clip-rule="evenodd" d="M18.875 3c1.863 0 3.384 1.442 3.478 3.256l.004.176v2.375c2.242 1.283 3.75 3.68 3.75 6.426 0 2.236-.45 4.445-1.301 6.283 1.36 1.23 2.194 2.873 2.194 4.692 0 .437-.36.792-.804.792H11.018a.799.799 0 0 1-.804-.792c0-1.135.325-2.201.9-3.142H5.481c-1.863 0-3.384-1.442-3.477-3.256L2 19.634V6.432c0-1.836 1.463-3.336 3.303-3.428L5.483 3h13.392Zm-6.483 18.482c-.84-1.831-1.285-4.027-1.285-6.249 0-4.096 3.357-7.419 7.5-7.419.745 0 1.464.108 2.143.308v-1.69a1.86 1.86 0 0 0-1.741-1.843l-.134-.005H5.482c-.99 0-1.801.757-1.87 1.716l-.005.132v13.202a1.86 1.86 0 0 0 1.741 1.843l.134.005h6.91Zm-3.206-5.51a.784.784 0 0 1 .072 1.04l-.072.08-2.37 2.34a.814.814 0 0 1-1.139.002.786.786 0 0 1-.07-1.04l.071-.081 2.372-2.34a.812.812 0 0 1 1.136 0v-.001Zm4.21-8.31a.784.784 0 0 0-.072-1.039.812.812 0 0 0-1.136 0l-6.512 6.419-.072.081a.784.784 0 0 0 .072 1.039.81.81 0 0 0 1.136 0l6.512-6.418.072-.081v-.001Zm-5.43-1.039a.784.784 0 0 1 .073 1.04l-.072.08-1.155 1.138a.812.812 0 0 1-1.136 0 .784.784 0 0 1-.072-1.039l.072-.08 1.154-1.14a.812.812 0 0 1 1.137 0l-.001.001Zm5.783 13.912a9.071 9.071 0 0 1 1.856-.823c-1.16-1.037-1.82-2.686-1.82-4.492l.008-.104a.798.798 0 0 1 .735-.695l.097-.001.123.007.224-.005a3.66 3.66 0 0 0 2.94-1.814.81.81 0 0 1 1.389 0c.664 1.123 1.846 1.82 3.144 1.82l.145-.008a.8.8 0 0 1 .835.721l.004.08c0 1.805-.66 3.454-1.82 4.491.662.21 1.285.488 1.856.823.667-1.551 1.035-3.409 1.035-5.302 0-3.223-2.64-5.835-5.893-5.835-3.254 0-5.893 2.612-5.893 5.835 0 1.893.368 3.75 1.035 5.302Zm4.858-1.28-.174-.005c-1.606-.09-2.73-1.438-2.985-3.235l-.005-.047.212-.031a5.245 5.245 0 0 0 2.841-1.487l.111-.116.11.116c.822.835 1.9 1.37 3.063 1.519l-.012.094c-.267 1.813-1.463 3.192-3.161 3.192Zm-6.69 6.056c.54-2.512 3.305-4.472 6.69-4.472l.235.004c3.277.088 5.928 2.014 6.456 4.468l.02.105H11.897l.02-.105Z" fill="#485FC7"/></svg>
